X:1
T:Title
%%score { 1 | 2 }
L:1/8
Q:1/4=100
M:4/4
K:G
V:1 treble nm="Grand Piano"
V:2 treble 
V:1
 B3 F A2 G2 | .d2 .d2 .d2 z2 | BAGA B2 d2 | d6 z2 | [Fc]3 [DF] [FB]2 A2 | d2 d2 d2 B2 | %6
w: B.~D.~Ackley * * *||||||
 ABAB [^CF]2 [CE]2 | [DA]4 [Fd]4 | d3 e d2 B2 | G2 [EGA]2 [^DFB]4 | [EGA]2 z2 [Fd]2 z2 | %11
w: |||||
 [DG]6 z2 |] %12
w: |
V:2
 [G,DG]3 [G,CD] [G,B,D]2 [G,B,D]2 | .[G,B,G]2 .[A,CF]2 .[B,DG]2 z2 | %2
 [G,DG][G,CG][G,B,][G,CG] [G,DG]2 [CDF]2 | [B,DG]6 z2 | [D,A,]3 [D,A,] [D,D]2[K:treble] [CDF]2 | %5
 [B,DG]2 [A,CF]2 [G,B,G]2 [^G,D=F]2 | [A,DF][A,DF][A,DF][A,DF][K:bass] [G,,G,]2 [A,,G,]2 | %7
 [D,F,]4 [D,A,]4 | [G,B,G]3 [G,CG] [G,B,G]2[K:bass] [G,D]2 | [E,B,E]2 C,2 B,,4 | C,2 z2 [D,C]2 z2 | %11
 [G,B,]6 z2 |] %12

